src/assets/svg/icons/fa/nuevos/classic/thin/circle-trash classic thin.svg

<svg xmlns="http://www.w3.org/2000/svg" viewBox="0 0 512 512"><!--! Font Awesome Pro 6.4.0 by @fontawesome - https://fontawesome.com License - https://fontawesome.com/license (Commercial License) Copyright 2023 Fonticons, Inc. --><path d="M496 256A240 240 0 1 0 16 256a240 240 0 1 0 480 0zM0 256a256 256 0 1 1 512 0A256 256 0 1 1 0 256zm160-96h8 16 12l21.6-28.8c1.5-2 3.9-3.2 6.4-3.2h64c2.5 0 4.9 1.2 6.4 3.2L316 160h12 16 8c4.4 0 8 3.6 8 8s-3.6 8-8 8h-9.1L330.1 354.3C328.9 371 315 384 298.2 384H213.8c-16.8 0-30.7-13-31.9-29.7L169.1 176H160c-4.4 0-8-3.6-8-8s3.6-8 8-8zm56 0h80l-12-16H228l-12 16zm110.8 16H185.2l12.7 177.1c.6 8.4 7.6 14.9 16 14.9h84.4c8.4 0 15.4-6.5 16-14.9L326.8 176z"/></svg>

<svg xmlns="http://www.w3.org/2000/svg" viewBox="0 0 512 512"><path d="M196 160L217.6 131.2C219.1 129.2 221.5 128 224 128H288C290.5 128 292.9 129.2 294.4 131.2L316 160H352C356.4 160 360 163.6 360 168C360 172.4 356.4 176 352 176H342.9L330.1 354.3C328.9 371 314.1 384 298.2 384H213.8C197 384 183.1 371 181.9 354.3L169.1 176H160C155.6 176 152 172.4 152 168C152 163.6 155.6 160 160 160H196zM216 160H296L284 144H228L216 160zM326.8 176H185.2L197.8 353.1C198.4 361.5 205.4 368 213.8 368H298.2C306.6 368 313.6 361.5 314.2 353.1L326.8 176zM512 256C512 397.4 397.4 512 256 512C114.6 512 0 397.4 0 256C0 114.6 114.6 0 256 0C397.4 0 512 114.6 512 256zM256 16C123.5 16 16 123.5 16 256C16 388.5 123.5 496 256 496C388.5 496 496 388.5 496 256C496 123.5 388.5 16 256 16z"/></svg>
